!!!COM: Palestrina, Giovanni Perluigi da
!!!OPR: Missa De Beata Marie Virginis (II)
!!!OMD: Credo
!!!OTL: First Section
**kern	**kern	**kern	**kern	**kern
*Ibass	*Itenor	*Itenor	*Icalto	*Icant
!Bassus	!Tenor 2	!Tenor 1	!Altus	!Cantus
*clefF4	*clefGv2	*clefGv2	*clefG2	*clefG2
*k[]	*k[]	*k[]	*k[]	*k[]
*G:mix	*G:mix	*G:mix	*G:mix	*G:mix
*M4/2	*M4/2	*M4/2	*M4/2	*M4/2
=1	=1	=1	=1	=1
0r	0r	0r	1c	0r
.	.	.	2e	.
.	.	.	2f	.
=2	=2	=2	=2	=2
0r	1G	0r	1g	1r
.	2B	.	[1g	2r
.	2c	.	.	2g
=3	=3	=3	=3	=3
0r	1d	1G	1g]	2.b
.	.	.	.	4cc
.	2d	2B	2r	2dd
.	2g	2c	2e	[2ee
=4	=4	=4	=4	=4
0r	2.f	1d	1.a	4ee]
.	.	.	.	4dd
.	.	.	.	1dd
.	8e	.	.	.
.	8d	.	.	.
.	2f	2d	.	.
.	[2e	2g	2g	2cc#
=5	=5	=5	=5	=5
0r	4e]	2.f	1a	2.dd
.	4d	.	.	.
.	1d	.	.	.
.	.	8e	.	8cc
.	.	8d	.	8b
.	.	2f	2d	[1a
.	2c	[2e	2e	.
=6	=6	=6	=6	=6
0r	2d	4e]	2f#	2a]
.	.	4d	.	.
.	2G	1d	2g	2b
.	1A	.	2e	1a
.	.	2c#	[2a	.
=7	=7	=7	=7	=7
2r	1a	0d	2a]	1f#
1d	.	.	2d	.
.	2f#	.	2a	1r
2G	[2g	.	2b	.
=8	=8	=8	=8	=8
2.d	2g]	0r	1a	2r
.	2f#	.	.	1dd
4c	.	.	.	.
2B	[1g	.	2d	.
[2c	.	.	2e	2g
=9	=9	=9	=9	=9
2c]	2g]	0r	2d	2.dd
4B	1d	.	2.g	.
4A	.	.	.	4cc
2G	.	.	.	2b
.	.	.	8f	.
.	.	.	8g	.
2F	2f	.	[2a	[2cc
=10	=10	=10	=10	=10
1G	2e	0r	4a]	2cc]
.	.	.	4g	.
.	4d	.	1g	2b
.	4c	.	.	.
1D	[1d	.	.	1a
.	.	.	2f#	.
=11	=11	=11	=11	=11
1G	1d]	1r	1g	1.b
1r	1r	[1e	[1g	.
.	.	.	.	2cc
=12	=12	=12	=12	=12
0r	0r	2e]	2g]	2b
.	.	2f	2a	2a
.	.	2e	2g	4b
.	.	.	.	4cc
.	.	2d	2f	4dd
.	.	.	.	4a
=13	=13	=13	=13	=13
0r	1r	1e	4g	4cc
.	.	.	4e	4b
.	.	.	1g	4b
.	.	.	.	8a
.	.	.	.	8g
.	2r	1d	.	2a
.	[2d	.	2f#	2a
=14	=14	=14	=14	=14
2r	2d]	2G	1g	1b
1G	2e	1B	.	.
.	2d	.	2r	2r
2A	2c	2c	2e	2a
=15	=15	=15	=15	=15
2G	[0d	2B	2g	2b
2F#	.	2A	2a	1dd
1G	.	1B	2g	.
.	.	.	[2g	2dd
=16	=16	=16	=16	=16
1D	1d]	1.A	2g]	1dd
.	.	.	4f#	.
.	.	.	4e	.
1D	1d	.	2f#	1a
.	.	2A	2f#	.
=17	=17	=17	=17	=17
[0G	[0d	[0G	[0g	[0b
=18	=18	=18	=18	=18
0G]	0d]	0G]	0g]	0b]
*-	*-	*-	*-	*-
!!!CDT: 1525/^1526/-1594/2/2
!!!OCY: Italia
!!!AGN: Mass (Paraphrase)
!!!AST: renaissance, vocal
!!!ASW: Gregorian Mass
!!!PWK: Masses, Book Mantuan I
!!!RNB: Cadence finals: D
!!!YOR: Le Opere Complete, v. 18, p. 126
!!!YOO: Rome, Italy: Fratelli Scalera
!!!END: 1992//
!!!EED: John Miller
!!!YEC: Copyright 2000, John Miller
!!!YEN: United States of America
!!!YEM: Rights to all derivative electronic formats reserved.
!!!YEM: Refer to licensing agreement for further details.
!!!YEM: This file must be accompanied by the licensing agreement.
!!!YEM: A copy of the licensing agreement may be found at http://www.music-cog.ohio-state.edu/HumdrumDatabases/Palestrina/license.txt
!!!EMD: converted to Humdrum by Bret Aarden
